X:502
T:Eel in the Sink, The
R:reel
H:Also played in Ador, see "The Blackthorn", #478
D:Terry Bingham
Z:id:hn-reel-502
M:C|
K:Amix
e2AB cdec|d2BG dG (3Bcd|eAAB cdef|1 gedg eAAd:|2 gedg eAA2||
a2ea aged|cdef g2fg|a2ea agab|gedg eAA2|
a2ea aged|cdef g2fg|afge fdef|gfgd BAAd||
